img/youtube-3.svg

<svg fill="none" height="32" viewBox="0 0 33 32" width="33" xmlns="http://www.w3.org/2000/svg" xmlns:xlink="http://www.w3.org/1999/xlink"><clipPath id="a"><path d="m.05957 0h32.0594v32h-32.0594z"/></clipPath><g clip-path="url(#a)"><path d="m31.4076 8.31542c-.3735-1.37847-1.4508-2.4579-2.8319-2.82658-1.855-.71484-19.82278-1.06509-25.03498.02048-1.38103.37278-2.46246 1.44811-2.831833 2.82658-.837237 3.6664-.90085 11.5931.02052 15.3414.373473 1.3785 1.450803 2.4579 2.831833 2.8266 3.67316.8439 21.13606.9627 25.03496 0 1.3811-.3728 2.4625-1.4481 2.8319-2.8266.8926-3.9941.9562-11.4292-.0205-15.36188z" fill="#f00"/><path d="m21.3528 15.996-8.3723-4.7929v9.5858z" fill="#fff"/></g></svg>

<svg width="33" height="32" viewBox="0 0 33 32" fill="none" xmlns="http://www.w3.org/2000/svg">
<g clip-path="url(#clip0_3178_10772)">
<path d="M31.4076 8.31542C31.0341 6.93695 29.9568 5.85752 28.5757 5.48884C26.7207 4.774 8.75292 4.42375 3.54072 5.50932C2.15969 5.8821 1.07826 6.95743 0.708887 8.3359C-0.12835 12.0023 -0.191963 19.929 0.729407 23.6773C1.10288 25.0558 2.18021 26.1352 3.56124 26.5039C7.2344 27.3478 24.6973 27.4666 28.5962 26.5039C29.9773 26.1311 31.0587 25.0558 31.4281 23.6773C32.3207 19.6832 32.3843 12.2481 31.4076 8.31542Z" fill="#FF0000"/>
<path d="M21.3528 15.996L12.9805 11.2031V20.7889L21.3528 15.996Z" fill="white"/>
</g>
<defs>
<clipPath id="clip0_3178_10772">
<rect width="32.0594" height="32" fill="white" transform="translate(0.0595703)"/>
</clipPath>
</defs>
</svg>
